X:038
T:Beggar Girl, The TS.038
M:6/8
L:1/8
Q:3/8=100
S:Thomas Sands’ MS,1810,Lincolnshire
C:Prefixed as ‘No.26′ in MS
R:jig
O:England;Lincolnshire
Z:vmp.Ruairidh Greig, 2011
K:G
+fermata+d>cB+fermata+ d>cB|A>GA “tr”B(G/A/B/c/)|+fermata+d>cB+fermata+ d>cB|A>GAG3|
+fermata+d>cB +fermata+d>cB|AGA Bcd|+fermata+d>cB+fermata+ d>cB|AGAG3:|
|:DGB DAc|DcB AGA|DGF “tr”E2c/c/|BAG+fermata+d3|
+fermata+d>cB +fermata+d>cB|AGA Bcd|+fermata+d>cB ef+fermata+g|BcA G3:|]

